X:24
T:Braes of Balquhidder
M:C|
L:1/8
K:F
c|(A/c/d) Fc A2    Ac|(A/c/d) Fc AGGc|dFcF  A2Ac| defc         A/A/A A:|
c| defc      A/A/A ag| fdTcA     cGGc|defd TcAag| a/g/f/e/ fc  A/A/A Ac|
   defc      A/A/A ag| fdTcA     cGGA|FCCD  FGAa|(a/g/f/e/ f)c A2    A:|

% @@@@@@@@@@@@@@@@@@@@@@@@@@@@@@@@@@

%% 25. ===============================================================================

% @THE LADS OF@
%   %Air.&
%
% *FIRST Man change places with 2d Woman; first Woman the same: first and 2d Men
% sett to their own Partners, and half turn to their proper sides.  *First Couple lead
% down thro' the 3d Couple, and cast up; then Right and Left with the 2d Couple.  *SETT
% across and turn.  Reel at the sides.  *Sett to your Partner, and turn.

% @@@@@@@@@@@@@@@@@@@@@@@@@@@@@@@@@@

